inst/assets/svg/wi-sleet.svg

<?xml version="1.0" encoding="UTF-8"?>
<svg xmlns="http://www.w3.org/2000/svg" xmlns:xlink="http://www.w3.org/1999/xlink" width="30pt" height="30pt" viewBox="0 0 30 30" version="1.1">
<g id="surface846">
<path style=" stroke:none;fill-rule:nonzero;fill:rgb(0%,0%,0%);fill-opacity:1;" d="M 4.089844 16.949219 C 4.089844 15.789063 4.449219 14.761719 5.171875 13.859375 C 5.890625 12.960938 6.808594 12.371094 7.910156 12.121094 C 8.21875 10.75 8.921875 9.628906 10.011719 8.75 C 11.101563 7.871094 12.359375 7.429688 13.78125 7.429688 C 14.589844 7.429688 15.328125 7.558594 15.980469 7.828125 C 15.980469 7.839844 15.980469 7.839844 15.988281 7.851563 C 16.828125 8.171875 17.570313 8.691406 18.199219 9.398438 L 18.230469 9.398438 C 18.910156 10.128906 19.359375 11 19.601563 12.019531 L 19.910156 12.019531 C 20.988281 12.019531 21.929688 12.308594 22.738281 12.878906 L 22.738281 12.871094 C 23.269531 13.230469 23.71875 13.671875 24.078125 14.199219 C 24.441406 14.730469 24.679688 15.308594 24.808594 15.941406 C 24.851563 16.148438 24.871094 16.320313 24.890625 16.460938 L 24.890625 16.519531 C 24.890625 16.53125 24.890625 16.578125 24.898438 16.691406 C 24.910156 16.800781 24.910156 16.878906 24.910156 16.929688 L 24.910156 16.960938 C 24.910156 17.839844 24.699219 18.660156 24.269531 19.410156 C 23.851563 20.160156 23.269531 20.769531 22.53125 21.21875 C 21.800781 21.671875 20.988281 21.910156 20.109375 21.941406 C 19.980469 21.941406 19.910156 21.878906 19.910156 21.769531 L 19.910156 20.429688 C 19.910156 20.300781 19.980469 20.238281 20.109375 20.238281 C 20.96875 20.199219 21.691406 19.859375 22.289063 19.21875 C 22.890625 18.578125 23.191406 17.828125 23.191406 16.960938 C 23.191406 16.070313 22.871094 15.308594 22.21875 14.671875 C 21.578125 14.03125 20.808594 13.710938 19.910156 13.710938 L 18.300781 13.710938 C 18.179688 13.710938 18.121094 13.648438 18.121094 13.539063 L 18.039063 12.949219 C 17.941406 11.949219 17.519531 11.089844 16.769531 10.359375 C 16.761719 10.351563 16.761719 10.339844 16.75 10.328125 C 16.738281 10.320313 16.730469 10.308594 16.730469 10.300781 C 16.71875 10.289063 16.710938 10.28125 16.691406 10.28125 C 16.691406 10.261719 16.679688 10.25 16.671875 10.25 C 15.941406 9.589844 15.089844 9.210938 14.109375 9.128906 C 14.039063 9.121094 13.929688 9.121094 13.769531 9.121094 C 12.671875 9.121094 11.71875 9.488281 10.910156 10.21875 C 10.101563 10.949219 9.640625 11.859375 9.539063 12.941406 L 9.460938 13.53125 C 9.429688 13.621094 9.351563 13.671875 9.238281 13.671875 L 8.75 13.699219 C 7.910156 13.800781 7.199219 14.160156 6.640625 14.769531 C 6.078125 15.378906 5.800781 16.109375 5.800781 16.949219 L 5.800781 16.988281 L 5.828125 16.988281 C 5.839844 17.46875 5.941406 17.921875 6.128906 18.339844 C 6.328125 18.769531 6.589844 19.128906 6.929688 19.429688 C 7.140625 19.609375 7.378906 19.769531 7.671875 19.910156 L 7.671875 19.921875 C 8.070313 20.109375 8.46875 20.21875 8.878906 20.238281 C 8.988281 20.238281 9.050781 20.300781 9.050781 20.421875 L 9.050781 21.761719 C 9.050781 21.871094 8.988281 21.929688 8.878906 21.929688 C 8.359375 21.898438 7.871094 21.800781 7.398438 21.628906 L 7.398438 21.640625 C 6.570313 21.351563 5.859375 20.871094 5.289063 20.210938 C 4.71875 19.550781 4.339844 18.769531 4.179688 17.898438 L 4.179688 17.871094 C 4.171875 17.859375 4.171875 17.851563 4.171875 17.828125 C 4.109375 17.570313 4.089844 17.269531 4.089844 16.949219 Z M 9.589844 24.121094 C 9.589844 24.089844 9.601563 24.050781 9.609375 23.988281 C 9.621094 23.941406 9.628906 23.898438 9.628906 23.871094 L 9.71875 23.28125 C 9.789063 23.039063 9.921875 22.871094 10.128906 22.75 C 10.339844 22.628906 10.558594 22.609375 10.808594 22.671875 C 11.039063 22.738281 11.199219 22.878906 11.320313 23.078125 C 11.429688 23.289063 11.449219 23.5 11.390625 23.710938 L 11.25 24.308594 C 11.148438 24.75 10.898438 24.96875 10.488281 24.96875 C 10.460938 24.96875 10.410156 24.960938 10.351563 24.949219 C 10.289063 24.941406 10.25 24.929688 10.210938 24.929688 C 10 24.871094 9.851563 24.761719 9.75 24.601563 C 9.640625 24.449219 9.589844 24.289063 9.589844 24.121094 Z M 10.328125 21.179688 C 10.328125 20.941406 10.410156 20.75 10.558594 20.589844 C 10.710938 20.429688 10.910156 20.359375 11.148438 20.359375 C 11.390625 20.359375 11.578125 20.441406 11.738281 20.589844 C 11.898438 20.738281 11.96875 20.941406 11.96875 21.179688 C 11.96875 21.410156 11.890625 21.601563 11.738281 21.761719 C 11.589844 21.921875 11.390625 21.988281 11.148438 21.988281 C 10.921875 21.988281 10.730469 21.910156 10.578125 21.75 C 10.421875 21.589844 10.328125 21.398438 10.328125 21.179688 Z M 11.96875 27.171875 C 11.96875 27.128906 11.980469 27.058594 12.011719 26.941406 L 12.140625 26.351563 C 12.210938 26.121094 12.351563 25.949219 12.550781 25.839844 C 12.761719 25.71875 12.96875 25.699219 13.179688 25.769531 C 13.410156 25.808594 13.589844 25.941406 13.710938 26.140625 C 13.828125 26.339844 13.859375 26.570313 13.789063 26.820313 L 13.660156 27.410156 C 13.558594 27.820313 13.289063 28.019531 12.859375 28.019531 C 12.789063 28.019531 12.699219 28.011719 12.621094 27.988281 C 12.398438 27.929688 12.238281 27.820313 12.128906 27.660156 C 12.03125 27.5 11.96875 27.339844 11.96875 27.171875 Z M 12.761719 24.261719 C 12.761719 24.03125 12.839844 23.828125 12.988281 23.679688 C 13.148438 23.519531 13.339844 23.449219 13.578125 23.449219 C 13.820313 23.449219 14.011719 23.53125 14.171875 23.679688 C 14.328125 23.839844 14.398438 24.03125 14.398438 24.261719 C 14.398438 24.5 14.320313 24.691406 14.171875 24.851563 C 14.011719 25.011719 13.820313 25.078125 13.578125 25.078125 C 13.351563 25.078125 13.160156 25 13 24.839844 C 12.839844 24.679688 12.761719 24.488281 12.761719 24.261719 Z M 13.378906 21.988281 C 13.378906 21.890625 13.390625 21.800781 13.410156 21.71875 L 13.640625 20.820313 C 13.710938 20.589844 13.851563 20.410156 14.050781 20.289063 C 14.261719 20.171875 14.46875 20.140625 14.691406 20.210938 C 14.929688 20.28125 15.101563 20.410156 15.21875 20.609375 C 15.339844 20.808594 15.359375 21.019531 15.289063 21.238281 L 15.03125 22.140625 C 14.949219 22.421875 14.808594 22.601563 14.621094 22.699219 C 14.429688 22.800781 14.210938 22.820313 13.980469 22.761719 C 13.78125 22.71875 13.628906 22.621094 13.53125 22.460938 C 13.410156 22.300781 13.371094 22.140625 13.378906 21.988281 Z M 16.140625 24.128906 C 16.140625 24.101563 16.140625 24.050781 16.148438 24 C 16.160156 23.949219 16.160156 23.910156 16.160156 23.890625 L 16.25 23.300781 C 16.320313 23.058594 16.449219 22.890625 16.660156 22.769531 C 16.871094 22.648438 17.089844 22.628906 17.339844 22.691406 C 17.570313 22.761719 17.738281 22.898438 17.851563 23.101563 C 17.96875 23.308594 17.988281 23.519531 17.921875 23.730469 L 17.78125 24.328125 C 17.679688 24.769531 17.429688 24.988281 17.019531 24.988281 C 16.988281 24.988281 16.941406 24.980469 16.878906 24.96875 C 16.820313 24.960938 16.769531 24.949219 16.738281 24.949219 C 16.539063 24.890625 16.390625 24.78125 16.289063 24.621094 C 16.199219 24.460938 16.140625 24.300781 16.140625 24.128906 Z M 16.878906 21.191406 C 16.878906 20.949219 16.960938 20.761719 17.109375 20.601563 C 17.269531 20.441406 17.460938 20.371094 17.699219 20.371094 C 17.941406 20.371094 18.128906 20.449219 18.289063 20.601563 C 18.449219 20.761719 18.519531 20.949219 18.519531 21.191406 C 18.519531 21.421875 18.441406 21.621094 18.289063 21.769531 C 18.140625 21.921875 17.949219 22 17.710938 22 C 17.46875 22 17.28125 21.921875 17.128906 21.761719 C 16.96875 21.609375 16.878906 21.421875 16.878906 21.191406 Z M 16.878906 21.191406 "/>
</g>
</svg>

<?xml version="1.0" encoding="utf-8"?>
<!-- Generator: Adobe Illustrator 22.0.1, SVG Export Plug-In . SVG Version: 6.00 Build 0)  -->
<svg version="1.1" id="Layer_1" xmlns="http://www.w3.org/2000/svg" xmlns:xlink="http://www.w3.org/1999/xlink" x="0px" y="0px"
	 viewBox="0 0 30 30" style="enable-background:new 0 0 30 30;" xml:space="preserve">
<path d="M4.09,16.95c0-1.16,0.36-2.19,1.08-3.09s1.64-1.49,2.74-1.74c0.31-1.37,1.01-2.49,2.1-3.37s2.35-1.32,3.77-1.32
	c0.81,0,1.55,0.13,2.2,0.4c0,0.01,0,0.01,0.01,0.02c0.84,0.32,1.58,0.84,2.21,1.55h0.03c0.68,0.73,1.13,1.6,1.37,2.62h0.31
	c1.08,0,2.02,0.29,2.83,0.86v-0.01c0.53,0.36,0.98,0.8,1.34,1.33c0.36,0.53,0.6,1.11,0.73,1.74c0.04,0.21,0.06,0.38,0.08,0.52v0.06
	c0,0.01,0,0.06,0.01,0.17s0.01,0.19,0.01,0.24v0.03c0,0.88-0.21,1.7-0.64,2.45c-0.42,0.75-1,1.36-1.74,1.81
	c-0.73,0.45-1.54,0.69-2.42,0.72c-0.13,0-0.2-0.06-0.2-0.17v-1.34c0-0.13,0.07-0.19,0.2-0.19c0.86-0.04,1.58-0.38,2.18-1.02
	c0.6-0.64,0.9-1.39,0.9-2.26c0-0.89-0.32-1.65-0.97-2.29c-0.64-0.64-1.41-0.96-2.31-0.96h-1.61c-0.12,0-0.18-0.06-0.18-0.17
	l-0.08-0.59c-0.1-1-0.52-1.86-1.27-2.59c-0.01-0.01-0.01-0.02-0.02-0.03s-0.02-0.02-0.02-0.03c-0.01-0.01-0.02-0.02-0.04-0.02
	c0-0.02-0.01-0.03-0.02-0.03c-0.73-0.66-1.58-1.04-2.56-1.12c-0.07-0.01-0.18-0.01-0.34-0.01c-1.1,0-2.05,0.37-2.86,1.1
	s-1.27,1.64-1.37,2.72l-0.08,0.59c-0.03,0.09-0.11,0.14-0.22,0.14L8.75,13.7c-0.84,0.1-1.55,0.46-2.11,1.07s-0.84,1.34-0.84,2.18
	v0.04h0.03c0.01,0.48,0.11,0.93,0.3,1.35c0.2,0.43,0.46,0.79,0.8,1.09c0.21,0.18,0.45,0.34,0.74,0.48v0.01
	c0.4,0.19,0.8,0.3,1.21,0.32c0.11,0,0.17,0.06,0.17,0.18v1.34c0,0.11-0.06,0.17-0.17,0.17c-0.52-0.03-1.01-0.13-1.48-0.3v0.01
	c-0.83-0.29-1.54-0.77-2.11-1.43s-0.95-1.44-1.11-2.31v-0.03c-0.01-0.01-0.01-0.02-0.01-0.04C4.11,17.57,4.09,17.27,4.09,16.95z
	 M9.59,24.12c0-0.03,0.01-0.07,0.02-0.13c0.01-0.05,0.02-0.09,0.02-0.12l0.09-0.59c0.07-0.24,0.2-0.41,0.41-0.53
	s0.43-0.14,0.68-0.08c0.23,0.07,0.39,0.21,0.51,0.41c0.11,0.21,0.13,0.42,0.07,0.63l-0.14,0.6c-0.1,0.44-0.35,0.66-0.76,0.66
	c-0.03,0-0.08-0.01-0.14-0.02c-0.06-0.01-0.1-0.02-0.14-0.02c-0.21-0.06-0.36-0.17-0.46-0.33C9.64,24.45,9.59,24.29,9.59,24.12z
	 M10.33,21.18c0-0.24,0.08-0.43,0.23-0.59s0.35-0.23,0.59-0.23s0.43,0.08,0.59,0.23s0.23,0.35,0.23,0.59c0,0.23-0.08,0.42-0.23,0.58
	s-0.35,0.23-0.59,0.23c-0.23,0-0.42-0.08-0.57-0.24C10.42,21.59,10.33,21.4,10.33,21.18z M11.97,27.17c0-0.04,0.01-0.11,0.04-0.23
	l0.13-0.59c0.07-0.23,0.21-0.4,0.41-0.51c0.21-0.12,0.42-0.14,0.63-0.07c0.23,0.04,0.41,0.17,0.53,0.37
	c0.12,0.2,0.15,0.43,0.08,0.68l-0.13,0.59c-0.1,0.41-0.37,0.61-0.8,0.61c-0.07,0-0.16-0.01-0.24-0.03
	c-0.22-0.06-0.38-0.17-0.49-0.33C12.03,27.5,11.97,27.34,11.97,27.17z M12.76,24.26c0-0.23,0.08-0.43,0.23-0.58
	c0.16-0.16,0.35-0.23,0.59-0.23s0.43,0.08,0.59,0.23c0.16,0.16,0.23,0.35,0.23,0.58c0,0.24-0.08,0.43-0.23,0.59
	c-0.16,0.16-0.35,0.23-0.59,0.23c-0.23,0-0.42-0.08-0.58-0.24C12.84,24.68,12.76,24.49,12.76,24.26z M13.38,21.99
	c0-0.1,0.01-0.19,0.03-0.27l0.23-0.9c0.07-0.23,0.21-0.41,0.41-0.53c0.21-0.12,0.42-0.15,0.64-0.08c0.24,0.07,0.41,0.2,0.53,0.4
	s0.14,0.41,0.07,0.63l-0.26,0.9c-0.08,0.28-0.22,0.46-0.41,0.56c-0.19,0.1-0.41,0.12-0.64,0.06c-0.2-0.04-0.35-0.14-0.45-0.3
	C13.41,22.3,13.37,22.14,13.38,21.99z M16.14,24.13c0-0.03,0-0.08,0.01-0.13s0.01-0.09,0.01-0.11l0.09-0.59
	c0.07-0.24,0.2-0.41,0.41-0.53s0.43-0.14,0.68-0.08c0.23,0.07,0.4,0.21,0.51,0.41c0.12,0.21,0.14,0.42,0.07,0.63l-0.14,0.6
	c-0.1,0.44-0.35,0.66-0.76,0.66c-0.03,0-0.08-0.01-0.14-0.02c-0.06-0.01-0.11-0.02-0.14-0.02c-0.2-0.06-0.35-0.17-0.45-0.33
	C16.2,24.46,16.14,24.3,16.14,24.13z M16.88,21.19c0-0.24,0.08-0.43,0.23-0.59c0.16-0.16,0.35-0.23,0.59-0.23
	c0.24,0,0.43,0.08,0.59,0.23c0.16,0.16,0.23,0.35,0.23,0.59c0,0.23-0.08,0.43-0.23,0.58C18.14,21.92,17.95,22,17.71,22
	c-0.24,0-0.43-0.08-0.58-0.24C16.97,21.61,16.88,21.42,16.88,21.19z"/>
</svg>
